images/services/1.svg

<svg width="42" height="42" viewBox="0 0 42 42" fill="none" xmlns="http://www.w3.org/2000/svg">
<path d="M32.4148 25.2047C32.1451 24.1803 31.7376 23.1985 31.1994 22.2778L32.0073 20.6628L30.6679 19.3234C30.2072 19.9639 29.6822 20.5624 29.0889 21.1011L27.7541 22.3146L27.5218 22.7372C28.77 24.2203 29.5312 26.1261 29.5312 28.2162C29.5312 32.9281 25.7119 36.7475 21 36.7475C16.2881 36.7475 12.4688 32.9281 12.4688 28.2162C12.4688 26.0696 13.2674 24.114 14.576 22.6145L12.9111 21.1005C12.3178 20.5611 11.7889 19.9658 11.3282 19.326L9.99272 20.6621L10.8006 22.2771C10.2631 23.1979 9.85556 24.1796 9.58519 25.204L7.875 25.7743V30.6575L9.58519 31.2277C9.85491 32.2521 10.2624 33.2339 10.8006 34.1546L9.99272 35.7696L13.4466 39.2228L15.0616 38.4156C15.9823 38.9531 16.9641 39.3606 17.9885 39.6304L18.5581 41.3412H23.4413L24.0115 39.631C25.0359 39.3613 26.0177 38.9538 26.9384 38.4163L28.5534 39.2235L32.0073 35.7703L31.1994 34.1553C31.7369 33.2345 32.1444 32.2528 32.4148 31.2284L34.125 30.6581V25.775L32.4148 25.2047Z" fill="#FFC94F"/>
<path d="M28.5633 8.83975L29.7183 8.215C28.0698 5.17 24.8975 3.27869 21.4377 3.27869H21V4.59119H21.4377C24.4151 4.59119 27.1458 6.21869 28.5633 8.83975Z" fill="#535353"/>
<path d="M19.7922 4.62793L19.6655 3.32199C19.1891 3.36793 18.714 3.45127 18.252 3.5694L18.5775 4.84121C18.9738 4.73949 19.3827 4.66796 19.7922 4.62793Z" fill="#535353"/>
<path d="M40.4795 10.2494L34.7812 6.68856V9.84119H33.1183C31.8202 4.48816 27.0001 0.653687 21.4377 0.653687H20.5623C16.0519 0.653687 11.8978 3.21831 9.85163 7.21619H7.21875V4.06356L1.52053 7.62437C0.979125 7.963 0.65625 8.54641 0.65625 9.18494C0.65625 9.82347 0.979125 10.4069 1.52053 10.7455L7.21875 14.3063V11.1537H8.64019C8.57588 11.661 8.53125 12.1722 8.53125 12.6847C8.53125 16.067 9.96712 19.3122 12.4694 21.5867L13.6802 22.6873C12.4747 24.2793 11.8125 26.2166 11.8125 28.2162C11.8125 33.2824 15.9338 37.4037 21 37.4037C26.0662 37.4037 30.1875 33.2824 30.1875 28.2162C30.1875 26.2166 29.5253 24.2793 28.3198 22.6873L29.5306 21.5867C31.7474 19.5721 33.1282 16.7535 33.4031 13.7793H34.7812V16.932L40.4795 13.3712C41.0209 13.0319 41.3438 12.4485 41.3438 11.8099C41.3438 11.1714 41.0209 10.588 40.4795 10.2494ZM20.5623 1.96619H21.4377C26.2861 1.96619 30.5064 5.23431 31.7697 9.84119H23.625C22.8834 9.84119 22.2062 10.0978 21.6562 10.5145V10.4974C21.6562 8.68816 20.1843 7.21619 18.375 7.21619H11.3492C13.2661 3.99859 16.7724 1.96619 20.5623 1.96619ZM25.5938 26.9037C25.956 26.9037 26.25 27.1983 26.25 27.5599C26.25 27.9215 25.956 28.2162 25.5938 28.2162H16.4062C16.044 28.2162 15.75 27.9215 15.75 27.5599C15.75 27.1983 16.044 26.9037 16.4062 26.9037H25.5938ZM26.25 30.1849C26.25 30.5465 25.956 30.8412 25.5938 30.8412H16.4062C16.044 30.8412 15.75 30.5465 15.75 30.1849C15.75 29.8233 16.044 29.5287 16.4062 29.5287H25.5938C25.956 29.5287 26.25 29.8233 26.25 30.1849ZM5.90625 9.84119V11.9386L2.21681 9.6325C2.06194 9.53537 1.96875 9.36803 1.96875 9.18494C1.96875 9.00184 2.06194 8.8345 2.21681 8.73737L5.90625 6.43131V8.52869H18.375C19.4604 8.52869 20.3438 9.412 20.3438 10.4974V13.1224V25.5912H19.0312V11.1537C19.0312 10.4298 18.4426 9.84119 17.7188 9.84119H5.90625ZM9.84375 12.6847C9.84375 12.1715 9.89231 11.6603 9.96516 11.1537H17.7188V25.5912H17.0152C16.8597 24.3988 16.2901 23.2858 15.3917 22.4688L13.3534 20.6148C11.1221 18.589 9.84375 15.6976 9.84375 12.6847ZM13.125 28.2162C13.125 26.546 13.6618 24.9238 14.6455 23.5791C15.2237 24.1619 15.5958 24.9159 15.7093 25.7251C14.9677 26.0072 14.4375 26.7206 14.4375 27.5599C14.4375 28.0659 14.635 28.5233 14.9494 28.8724C14.6344 29.2216 14.4375 29.679 14.4375 30.1849C14.4375 31.0394 14.9881 31.7612 15.75 32.0329V34.0693C14.1435 32.6262 13.125 30.5406 13.125 28.2162ZM17.0625 35.0254V32.1537H24.9375V35.0254C23.7779 35.6987 22.4352 36.0912 21 36.0912C19.5648 36.0912 18.2221 35.6987 17.0625 35.0254ZM26.25 34.0693V32.0329C27.0119 31.7612 27.5625 31.0394 27.5625 30.1849C27.5625 29.679 27.365 29.2216 27.0506 28.8724C27.3656 28.5233 27.5625 28.0659 27.5625 27.5599C27.5625 26.7206 27.0322 26.0072 26.2907 25.7251C26.4036 24.9166 26.7757 24.1625 27.3538 23.5791C28.3382 24.9238 28.875 26.546 28.875 28.2162C28.875 30.5406 27.8565 32.6262 26.25 34.0693ZM28.6473 20.6155L26.609 22.4688C25.7106 23.2858 25.1409 24.3988 24.9854 25.5912H24.2812V13.7787H32.0873C31.8163 16.3847 30.5931 18.8469 28.6473 20.6155ZM39.7832 12.2575L36.0938 14.5636V12.4662H24.2812C23.5574 12.4662 22.9688 13.0548 22.9688 13.7787V25.5912H21.6562V13.1224C21.6562 12.037 22.5396 11.1537 23.625 11.1537H36.0938V9.05631L39.7832 11.3624C39.9381 11.4595 40.0312 11.6268 40.0312 11.8099C40.0312 11.993 39.9381 12.1604 39.7832 12.2575Z" fill="#535353"/>
</svg>

<svg width="42" height="42" fill="none" xmlns="http://www.w3.org/2000/svg"><path d="M32.415 25.205a11.69 11.69 0 0 0-1.216-2.927l.808-1.615-1.34-1.34c-.46.64-.985 1.24-1.578 1.778l-1.335 1.214-.232.422a8.478 8.478 0 0 1 2.01 5.48A8.531 8.531 0 0 1 21 36.746a8.531 8.531 0 0 1-8.531-8.53 8.49 8.49 0 0 1 2.107-5.602L12.911 21.1a11.4 11.4 0 0 1-1.583-1.775l-1.335 1.336.808 1.615c-.538.92-.945 1.903-1.216 2.927l-1.71.57v4.883l1.71.57a11.69 11.69 0 0 0 1.216 2.928l-.808 1.615 3.454 3.453 1.615-.807c.92.537 1.902.945 2.926 1.214l.57 1.711h4.883l.57-1.71a11.713 11.713 0 0 0 2.927-1.215l1.615.808 3.454-3.454-.808-1.615c.538-.92.945-1.902 1.216-2.927l1.71-.57v-4.883l-1.71-.57Z" fill="#FFC94F"/><path d="m28.563 8.84 1.155-.625a9.408 9.408 0 0 0-8.28-4.936H21V4.59h.438a8.093 8.093 0 0 1 7.125 4.249ZM19.792 4.628l-.127-1.306a9.34 9.34 0 0 0-1.413.247l.326 1.272a8.054 8.054 0 0 1 1.214-.213Z" fill="#535353"/><path d="M40.48 10.25 34.78 6.688V9.84h-1.663C31.82 4.488 27 .654 21.438.654h-.876c-4.51 0-8.664 2.564-10.71 6.562H7.219V4.064L1.52 7.624a1.83 1.83 0 0 0-.865 1.56c0 .64.323 1.223.865 1.562l5.698 3.56v-3.152H8.64a12.184 12.184 0 0 0-.109 1.53c0 3.383 1.436 6.628 3.938 8.903l1.211 1.1a9.16 9.16 0 0 0-1.867 5.53c0 5.065 4.12 9.187 9.187 9.187 5.066 0 9.188-4.122 9.188-9.188 0-2-.663-3.937-1.868-5.529l1.21-1.1c2.217-2.015 3.598-4.834 3.873-7.808h1.378v3.153l5.699-3.56c.54-.34.864-.924.864-1.562a1.83 1.83 0 0 0-.864-1.56ZM20.562 1.965h.876c4.848 0 9.068 3.268 10.332 7.875h-8.145c-.742 0-1.419.257-1.969.674v-.018a3.285 3.285 0 0 0-3.281-3.28h-7.026c1.917-3.218 5.423-5.25 9.213-5.25Zm5.032 24.938a.657.657 0 0 1 0 1.312h-9.188a.657.657 0 0 1 0-1.312h9.188Zm.656 3.28a.657.657 0 0 1-.656.657h-9.188a.657.657 0 0 1 0-1.312h9.188c.362 0 .656.294.656.656ZM5.906 9.842v2.098l-3.69-2.306a.526.526 0 0 1 0-.896l3.69-2.306V8.53h12.469c1.085 0 1.969.883 1.969 1.968v15.095H19.03V11.153c0-.724-.588-1.313-1.312-1.313H5.906Zm3.938 2.844c0-.514.048-1.025.121-1.531h7.754V25.59h-.704a5.116 5.116 0 0 0-1.623-3.122l-2.039-1.854a10.732 10.732 0 0 1-3.51-7.93Zm3.281 15.531c0-1.67.537-3.292 1.52-4.637.579.583.95 1.337 1.064 2.146a1.966 1.966 0 0 0-1.271 1.835c0 .506.197.963.511 1.312-.315.35-.511.807-.511 1.313 0 .854.55 1.576 1.312 1.848v2.036a7.85 7.85 0 0 1-2.625-5.853Zm3.938 6.81v-2.872h7.875v2.871A7.816 7.816 0 0 1 21 36.091a7.816 7.816 0 0 1-3.938-1.066Zm9.187-.957v-2.036a1.966 1.966 0 0 0 1.313-1.848c0-.506-.198-.963-.512-1.313.315-.349.512-.806.512-1.312 0-.84-.53-1.553-1.272-1.835a3.796 3.796 0 0 1 1.063-2.146 7.851 7.851 0 0 1 1.521 4.637 7.85 7.85 0 0 1-2.625 5.853Zm2.397-13.454L26.61 22.47a5.116 5.116 0 0 0-1.624 3.122h-.704V13.78h7.806a10.779 10.779 0 0 1-3.44 6.837Zm11.136-8.357-3.69 2.306v-2.098H24.282c-.724 0-1.312.589-1.312 1.313V25.59h-1.313V13.122c0-1.085.884-1.968 1.969-1.968h12.469V9.056l3.69 2.306a.526.526 0 0 1 0 .896Z" fill="#535353"/></svg>
